vacuum.svg

<svg fill="currentColor" viewBox="0 0 24 24"><path d="M23 20v2h-7v-2h2.46L12 4.61c-.19-.47-.5-.85-.94-1.15S10.14 3 9.61 3c-.71 0-1.33.27-1.85.79S7 4.92 7 5.64V9h1c2.21 0 4 1.79 4 4v9H8c.61-.84 1-1.87 1-3 0-2.76-2.24-5-5-5-.71 0-1.39.15-2 .42V9h3V5.64c0-.84.23-1.64.63-2.32.41-.7.96-1.26 1.67-1.69Q8.35 1 9.61 1c.94 0 1.79.26 2.55.77s1.34 1.2 1.71 2.04L20.66 20zM7 19c0 1.66-1.34 3-3 3s-3-1.34-3-3 1.34-3 3-3 3 1.34 3 3m-2 0c0-.55-.45-1-1-1s-1 .45-1 1 .45 1 1 1 1-.45 1-1"/></svg>

<svg  viewBox="0 0 24 24" fill="currentColor"><path  d="M23 20V22H16L16 20H18.46L12 4.61C11.81 4.14 11.5 3.76 11.06 3.46S10.14 3 9.61 3C8.9 3 8.28 3.27 7.76 3.79S7 4.92 7 5.64L7 9H8C10.21 9 12 10.79 12 13V22H8C8.61 21.16 9 20.13 9 19C9 16.24 6.76 14 4 14C3.29 14 2.61 14.15 2 14.42V9H5V5.64C5 4.8 5.23 4 5.63 3.32C6.04 2.62 6.59 2.06 7.3 1.63C8 1.21 8.77 1 9.61 1C10.55 1 11.4 1.26 12.16 1.77S13.5 2.97 13.87 3.81L20.66 20H23M7 19C7 20.66 5.66 22 4 22S1 20.66 1 19 2.34 16 4 16 7 17.34 7 19M5 19C5 18.45 4.55 18 4 18S3 18.45 3 19 3.45 20 4 20 5 19.55 5 19Z"/></svg>
